!! 00000] TT[WS
!!!OTL: Gechang yingxun liuhulan
!!!ARE: Asia, China, Shanxi
!! Ethnic Group: Han
!! WI, 324
!!!SCT: J0393
!!!YEM: Copyright 1995, estate of Helmut Schaffrath.
**kern
*ICvox
*Ivox
*M2/4
*k[b-e-a-d-]
*A-:
{8ee-
8ee-
8b-
8cc
=1
4.b-
8cc
=2
8ee-
8f
8ee-
8b-
=3
4a-
8g
8f}
=4
{8ee-
8ee-
8b-
8cc
=5
8b-
8a-
8g
8f
=6
8b-
8cc
8b-
8f
=7
2e-}
=8
{8b-
8cc
4b-
=9
8b-
8ff
8ee-
8cc
=10
8ee-
16b-
16cc
8b-
8e-
=11
2a-}
=12
{8ee-
8ee-
8b-
8cc
=13
8b-
8a-
8g
8f
=14
8b-
8a-
8g
8f
=15
2e-}
=16
{8b-
8cc
8b-
8e-
=17
8a-
8g
8f
8e-
=18
8ee-
8ee-
8b-
8cc
=19
8b-
8a-
8g
8f
=20
8b-
8a-
8g
8f
=21
2e-}
==
!!!AGN: Xiaodiao. Xinminge, Xuanchuan
!! Neue Text. Politische Liede
!!!ONB: ESAC (Essen Associative Code) Database: CHINA
!!!AMT: simple duple
!!!AIN: vox
!!!EED: Helmut Schaffrath
!!!EEV: 1.0
*-
